sites/Tartarya/images/main/Castle-icon.svg

<svg width="30" height="30" viewBox="0 0 30 30" fill="none" xmlns="http://www.w3.org/2000/svg">
<path d="M14.9535 0C14.4426 1.15576 13.8923 1.93285 13.5648 2.59201C13.1456 3.4507 13.008 4.11878 13.6499 5.66723H16.2636C16.9448 4.11305 16.8073 3.4558 16.375 2.59775C16.0409 1.93923 15.471 1.16022 14.9535 0ZM11.7896 6.80833L12.4446 7.9558H17.423L18.0781 6.80833H11.7896ZM2.63396 7.9048C2.34115 8.49129 2.05096 8.93115 1.87999 9.27539C1.62518 9.79175 1.54985 10.1679 1.9003 11.0603H3.36827C3.72789 10.1679 3.65256 9.79813 3.39578 9.27539C3.22285 8.93115 2.93004 8.49129 2.63396 7.9048ZM27.2291 7.9048C26.9409 8.48491 26.6461 8.92478 26.4758 9.27539C26.2269 9.79175 26.1483 10.1679 26.4955 11.0603H27.9693C28.3231 10.1679 28.251 9.79813 27.9955 9.27539C27.8187 8.93115 27.5305 8.49129 27.2291 7.9048ZM13.8596 8.77178C14.2591 18.8313 12.1368 28.2469 11.7175 30H13.2897C13.3355 29.6749 13.4076 29.235 13.5058 28.7824C13.6041 28.3425 13.722 27.8963 13.8989 27.5138C13.984 27.3289 14.0823 27.1504 14.2329 26.9847C14.3836 26.8253 14.6325 26.6532 14.9469 26.6532C15.281 26.6532 15.5103 26.8445 15.6478 27.0038C15.7854 27.1632 15.8706 27.3353 15.9557 27.5202C16.1195 27.8963 16.2439 28.3362 16.3487 28.7697C16.4601 29.2414 16.5387 29.6685 16.5911 30H18.1763C17.7571 28.2469 15.6413 18.8313 16.0409 8.77178H13.8596ZM0 12.0357L0.65505 13.1832H4.58535L5.23909 12.0357H0ZM24.7596 12.0357L25.4146 13.1832H29.3449L30 12.0357H24.7596ZM2.10206 14.133C2.32412 20.4441 1.07821 26.2835 0.701559 27.8963H3.58444C3.7482 27.3098 3.91 26.4683 4.03511 25.2954C3.55823 22.6243 3.01192 18.4934 3.1652 14.133H2.10206ZM26.6985 14.133C26.8492 18.487 26.3055 22.6116 25.8339 25.2826C25.9452 26.462 26.1024 27.3034 26.2531 27.8963H29.1681C28.7882 26.2835 27.5436 20.4441 27.7663 14.133H26.6985ZM12.5888 15.7076C11.128 16.0391 8.89427 16.3515 5.43561 16.5363C5.44216 17.9197 5.3308 18.8313 5.12773 19.4241H12.2743C12.3988 18.2384 12.5102 16.9889 12.5888 15.7076ZM17.3117 15.7076C17.3903 16.9889 17.5016 18.2384 17.6261 19.4241H24.8775C24.6548 18.8377 24.491 17.9452 24.4583 16.5363C21.0062 16.3515 18.7724 16.0391 17.3117 15.7076ZM5.43561 20.7055C5.40286 25.1551 5.00327 27.4628 4.56177 28.7059C4.5074 28.8589 4.45172 28.9992 4.39539 29.1203H10.7153C11.069 27.4883 11.6717 24.4539 12.1237 20.7055H5.43561ZM17.7702 20.7055C18.2287 24.4539 18.8248 27.4883 19.1786 29.1203H25.4277C25.3753 28.9928 25.3229 28.8525 25.2705 28.6995C24.8513 27.4564 24.4779 25.1487 24.4452 20.7055H17.7702Z" fill="#5EA6CF"/>
</svg>

<svg width="30" height="30" fill="none" xmlns="http://www.w3.org/2000/svg"><path d="M14.954 0c-.511 1.156-1.062 1.933-1.39 2.592-.418.859-.556 1.527.086 3.075h2.614c.68-1.554.543-2.211.111-3.07-.334-.658-.904-1.437-1.421-2.597ZM11.79 6.808l.655 1.148h4.978l.655-1.148H11.79ZM2.634 7.905c-.293.586-.583 1.026-.754 1.37-.255.517-.33.893.02 1.785h1.468c.36-.892.285-1.262.028-1.785-.173-.344-.466-.784-.762-1.37Zm24.595 0c-.288.58-.583 1.02-.753 1.37-.25.517-.328.893.02 1.785h1.473c.354-.892.282-1.262.026-1.785-.176-.344-.465-.784-.766-1.37Zm-13.37.867c.4 10.06-1.722 19.475-2.142 21.228h1.573c.046-.325.118-.765.216-1.218.098-.44.216-.886.393-1.268a2 2 0 0 1 .334-.53c.15-.159.4-.33.714-.33.334 0 .563.19.7.35.138.16.224.331.309.516.163.376.288.816.393 1.25.111.471.19.899.242 1.23h1.585c-.419-1.753-2.535-11.169-2.135-21.228H13.86ZM0 12.036l.655 1.147h3.93l.654-1.147H0Zm24.76 0 .655 1.147h3.93L30 12.036h-5.24ZM2.102 14.133c.222 6.311-1.024 12.15-1.4 13.763h2.882c.164-.586.326-1.428.451-2.6-.477-2.672-1.023-6.803-.87-11.163H2.102Zm24.596 0c.151 4.354-.393 8.479-.864 11.15.111 1.179.268 2.02.42 2.613h2.914c-.38-1.613-1.624-7.452-1.402-13.763H26.7Zm-14.11 1.575c-1.46.331-3.694.644-7.152.828.006 1.384-.105 2.295-.308 2.888h7.146c.125-1.186.236-2.435.315-3.716Zm4.724 0c.078 1.28.19 2.53.314 3.716h7.252c-.223-.586-.387-1.479-.42-2.888-3.452-.184-5.686-.497-7.146-.828ZM5.436 20.706c-.033 4.45-.433 6.757-.874 8-.055.153-.11.293-.167.414h6.32a92.892 92.892 0 0 0 1.409-8.415H5.436Zm12.334 0a95.268 95.268 0 0 0 1.409 8.414h6.249a7.527 7.527 0 0 1-.158-.42c-.419-1.244-.792-3.551-.825-7.994H17.77Z" fill="#5EA6CF"/></svg>
